!!!OTL: Die Todesbraut ohne Text
!!!ARE: Europa, Suedosteuropa, Jugoslavija, Slovenien
!!!YOR: 2, S. 240
!!    1839 gedruckt in Zagreb
!!!SCT: Q2049M
!!!YEM: Copyright 1995, estate of Helmut Schaffrath.
**kern
*ICvox
*Ivox
*M6/8
*k[f#]
*G:
{8dd
=1
4b
8dd
4ee
8dd
=2
8dd
8cc
8b
4r}
{8dd
=3
4b
8dd
4ee
8dd
=4
8dd
8cc
8b
8r}
{8cc
8a
=5
4g
8b
4dd
8b
=6
8b
8a
8g
8r}
{8cc
8a
=7
4g
8b
4dd
8b
=8
4.a
4g}
==
!!!AGN: Ballade, Hochzeit, Unfall, Tod
!! Slovenische Fassung der Ballade.
!!!ONB: ESAC (Essen Associative Code) Database: BALLADE
!!!AMT: compound duple
!!!AIN: vox
!!!EED: Helmut Schaffrath
!!!EEV: 1.0
*-
